src/images/section-package-content-bg-desktop.svg

<svg fill="none" height="1228" viewBox="0 0 1440 1228" width="1440" xmlns="http://www.w3.org/2000/svg"><g fill="#2f80ed"><path d="m-40.2992 749.776c1.0726 43.353 29.9668 81.075 71.5452 93.402l901.553 267.282c51.09 15.15 105.081-12.43 122.761-62.7l272.7-775.4c21.97-62.462-21.73-128.643-87.81-132.964l-1134.146-74.182c-87.98-5.7545-161.9247 65.249-159.7441 153.39z"/><path d="m-87.5324 783.08c-2.0467 45.105 26.3848 85.986 69.382 99.764l984.6084 315.506c51.532 16.51 106.852-10.97 124.832-62l320.04-908.405c21.96-62.331-21.5-128.4426-87.43-132.9924l-1222.689-84.3792c-84.0259-5.79886-156.3545 58.7052-160.1724 142.8446z" fill-opacity=".1"/></g></svg>

<svg width="1440" height="1228" viewBox="0 0 1440 1228" fill="none" xmlns="http://www.w3.org/2000/svg">
<path d="M-40.2992 749.776C-39.2266 793.129 -10.3324 830.851 31.246 843.178L932.799 1110.46C983.889 1125.61 1037.88 1098.03 1055.56 1047.76L1328.26 272.36C1350.23 209.898 1306.53 143.717 1240.45 139.396L106.304 65.214C18.324 59.4595 -55.6207 130.463 -53.4401 218.604L-40.2992 749.776Z" fill="#2F80ED"/>
<path d="M-87.5324 783.08C-89.5791 828.185 -61.1476 869.066 -18.1504 882.844L966.458 1198.35C1017.99 1214.86 1073.31 1187.38 1091.29 1136.35L1411.33 227.945C1433.29 165.614 1389.83 99.5024 1323.9 94.9526L101.211 10.5734C17.1851 4.77454 -55.1435 69.2786 -58.9614 153.418L-87.5324 783.08Z" fill="#2F80ED" fill-opacity="0.1"/>
</svg>
